static/img/kroki/3028de9d65caf9b0e569246e7e17d593.svg

<?xml version="1.0" encoding="us-ascii" standalone="no"?><svg xmlns="http://www.w3.org/2000/svg" xmlns:xlink="http://www.w3.org/1999/xlink" contentStyleType="text/css" height="252px" preserveAspectRatio="none" style="width:271px;height:252px;" version="1.1" viewBox="0 0 271 252" width="271px" zoomAndPan="magnify"><defs/><g><!--class azure_ip_allocation--><g id="elem_azure_ip_allocation"><rect codeLine="22" fill="#3D176E" height="39.7891" id="azure_ip_allocation" rx="2.5" ry="2.5" style="stroke:#000D19;stroke-width:0.5;" width="202" x="21.5" y="206.58"/><ellipse cx="36.5" cy="226.4745" fill="#ADD1B2" rx="11" ry="11" style="stroke:#181818;stroke-width:1.0;"/><path d="M39.4688,232.1152 Q38.8906,232.412 38.25,232.5527 Q37.6094,232.7089 36.9063,232.7089 Q34.4063,232.7089 33.0781,231.0683 Q31.7656,229.412 31.7656,226.287 Q31.7656,223.162 33.0781,221.5058 Q34.4063,219.8495 36.9063,219.8495 Q37.6094,219.8495 38.25,220.0058 Q38.9063,220.162 39.4688,220.4589 L39.4688,223.1777 Q38.8438,222.5995 38.25,222.3339 Q37.6563,222.0527 37.0313,222.0527 Q35.6875,222.0527 35,223.1308 Q34.3125,224.1933 34.3125,226.287 Q34.3125,228.3808 35,229.4589 Q35.6875,230.5214 37.0313,230.5214 Q37.6563,230.5214 38.25,230.2558 Q38.8438,229.9745 39.4688,229.3964 L39.4688,232.1152 Z " fill="#000000"/><text fill="#D9B8FF" font-family="Helvetica" font-size="17" lengthAdjust="spacing" textLength="160" x="55.5" y="232.3598">azure_ip_allocation</text></g><!--class azure_subnet--><g id="elem_azure_subnet"><rect codeLine="24" fill="#3D176E" height="39.7891" id="azure_subnet" rx="2.5" ry="2.5" style="stroke:#000D19;stroke-width:0.5;" width="154" x="110.5" y="106.79"/><ellipse cx="125.5" cy="126.6845" fill="#ADD1B2" rx="11" ry="11" style="stroke:#181818;stroke-width:1.0;"/><path d="M128.4688,132.3252 Q127.8906,132.622 127.25,132.7627 Q126.6094,132.9189 125.9063,132.9189 Q123.4063,132.9189 122.0781,131.2783 Q120.7656,129.622 120.7656,126.497 Q120.7656,123.372 122.0781,121.7158 Q123.4063,120.0595 125.9063,120.0595 Q126.6094,120.0595 127.25,120.2158 Q127.9063,120.372 128.4688,120.6689 L128.4688,123.3877 Q127.8438,122.8095 127.25,122.5439 Q126.6563,122.2627 126.0313,122.2627 Q124.6875,122.2627 124,123.3408 Q123.3125,124.4033 123.3125,126.497 Q123.3125,128.5908 124,129.6689 Q124.6875,130.7314 126.0313,130.7314 Q126.6563,130.7314 127.25,130.4658 Q127.8438,130.1845 128.4688,129.6064 L128.4688,132.3252 Z " fill="#000000"/><text fill="#D9B8FF" font-family="Helvetica" font-size="17" lengthAdjust="spacing" textLength="112" x="144.5" y="132.5698">azure_subnet</text></g><!--class azure_virtual_network--><g id="elem_azure_virtual_network"><rect codeLine="26" fill="#3D176E" height="39.7891" id="azure_virtual_network" rx="2.5" ry="2.5" style="stroke:#000D19;stroke-width:0.5;" width="231" x="7" y="7"/><ellipse cx="22" cy="26.8945" fill="#ADD1B2" rx="11" ry="11" style="stroke:#181818;stroke-width:1.0;"/><path d="M24.9688,32.5352 Q24.3906,32.832 23.75,32.9727 Q23.1094,33.1289 22.4063,33.1289 Q19.9063,33.1289 18.5781,31.4883 Q17.2656,29.832 17.2656,26.707 Q17.2656,23.582 18.5781,21.9258 Q19.9063,20.2695 22.4063,20.2695 Q23.1094,20.2695 23.75,20.4258 Q24.4063,20.582 24.9688,20.8789 L24.9688,23.5977 Q24.3438,23.0195 23.75,22.7539 Q23.1563,22.4727 22.5313,22.4727 Q21.1875,22.4727 20.5,23.5508 Q19.8125,24.6133 19.8125,26.707 Q19.8125,28.8008 20.5,29.8789 Q21.1875,30.9414 22.5313,30.9414 Q23.1563,30.9414 23.75,30.6758 Q24.3438,30.3945 24.9688,29.8164 L24.9688,32.5352 Z " fill="#000000"/><text fill="#D9B8FF" font-family="Helvetica" font-size="17" lengthAdjust="spacing" textLength="189" x="41" y="32.7798">azure_virtual_network</text></g><!--link azure_subnet to azure_ip_allocation--><g id="link_azure_subnet_azure_ip_allocation"><path codeLine="28" d="M174.66,147.01 C163.26,164.15 150.0188,184.0614 138.6388,201.2014 " fill="none" id="azure_subnet-to-azure_ip_allocation" style="stroke:#1A83AF;stroke-width:2.0;"/><polygon fill="#1A83AF" points="135.32,206.2,143.6305,200.9147,138.0856,202.0345,136.9658,196.4896,135.32,206.2" style="stroke:#1A83AF;stroke-width:2.0;"/></g><!--link azure_virtual_network to azure_ip_allocation--><g id="link_azure_virtual_network_azure_ip_allocation"><path codeLine="29" d="M112.93,47.1 C105.71,62.74 96.39,85.61 92.5,106.79 C89.3,124.18 89.3,129.19 92.5,146.58 C96.39,167.77 103.1939,185.1931 110.4139,200.8231 " fill="none" id="azure_virtual_network-to-azure_ip_allocation" style="stroke:#1A83AF;stroke-width:2.0;"/><polygon fill="#1A83AF" points="112.93,206.27,112.7871,196.4222,110.8332,201.7309,105.5245,199.777,112.93,206.27" style="stroke:#1A83AF;stroke-width:2.0;"/></g><!--link azure_virtual_network to azure_subnet--><g id="link_azure_virtual_network_azure_subnet"><path codeLine="30" d="M135.34,47.22 C146.74,64.36 159.9812,84.2714 171.3612,101.4114 " fill="none" id="azure_virtual_network-to-azure_subnet" style="stroke:#1A83AF;stroke-width:2.0;"/><polygon fill="#1A83AF" points="174.68,106.41,173.0342,96.6996,171.9144,102.2445,166.3695,101.1247,174.68,106.41" style="stroke:#1A83AF;stroke-width:2.0;"/></g><!--SRC=[hP3DQy904CNl_XKBdWLJQQENGXIalKYflPKYa-oiBjdiXjc9GKl_z_hHbZNnuzBhlD_CUszMMgB0ekIDAB18aNp7vzgMG528XCZL4sSSYQvIe0PnKvmwopU16HGedj2iaNK6JU9jfRFSelVYBf36aELBSfMLn_DCOFrEGii1DJ7WVS9CEgqOWp1ob0wLQfBDezs1ZE87R66E9D8Fqk_tPJHg8ZUjhlR-8-PwYo8AdpPpZAsOBOi3TJNbdWX2jeh-wXSple2KsYx5VJ1xFMOYYtGodwz0kdfFAp0-jF6CX8ut9KvQhN0qb2e-2pzVWhFzvmHiAyA5BXTWZCk0jRFYi_DrelegjSYjyLeJLs0MEwrsb1_qauNUUpTAXeDa-j5xF6VKEN_d_zQEERu1]--></g></svg>

<svg xmlns="http://www.w3.org/2000/svg" width="271" height="252" viewBox="0 0 271 252"><rect width="202" height="39.789" x="21.5" y="206.58" fill="#3D176E" rx="2.5" ry="2.5" style="stroke:#000d19;stroke-width:.5"/><circle cx="36.5" cy="226.475" r="11" fill="#ADD1B2" style="stroke:#181818;stroke-width:1"/><path d="M39.469 232.115q-.578.297-1.219.438-.64.156-1.344.156-2.5 0-3.828-1.64-1.312-1.657-1.312-4.782t1.312-4.781q1.328-1.656 3.828-1.656.703 0 1.344.156.656.156 1.219.453v2.719q-.625-.578-1.219-.844-.594-.281-1.219-.281-1.343 0-2.031 1.078-.687 1.062-.687 3.156t.687 3.172q.688 1.062 2.031 1.062.625 0 1.219-.265.594-.281 1.219-.86z"/><text x="55.5" y="232.36" fill="#D9B8FF" font-family="Helvetica" font-size="17" textLength="160">azure_ip_allocation</text><rect width="154" height="39.789" x="110.5" y="106.79" fill="#3D176E" rx="2.5" ry="2.5" style="stroke:#000d19;stroke-width:.5"/><circle cx="125.5" cy="126.684" r="11" fill="#ADD1B2" style="stroke:#181818;stroke-width:1"/><path d="M128.469 132.325q-.578.297-1.219.438-.64.156-1.344.156-2.5 0-3.828-1.64-1.312-1.657-1.312-4.782t1.312-4.781q1.328-1.656 3.828-1.656.703 0 1.344.156.656.156 1.219.453v2.719q-.625-.579-1.219-.844-.594-.281-1.219-.281-1.344 0-2.031 1.078-.687 1.062-.687 3.156t.687 3.172q.688 1.062 2.031 1.062.625 0 1.219-.265.594-.281 1.219-.86z"/><text x="144.5" y="132.57" fill="#D9B8FF" font-family="Helvetica" font-size="17" textLength="112">azure_subnet</text><rect width="231" height="39.789" x="7" y="7" fill="#3D176E" rx="2.5" ry="2.5" style="stroke:#000d19;stroke-width:.5"/><circle cx="22" cy="26.895" r="11" fill="#ADD1B2" style="stroke:#181818;stroke-width:1"/><path d="M24.969 32.535q-.578.297-1.219.438-.64.156-1.344.156-2.5 0-3.828-1.64-1.312-1.657-1.312-4.782t1.312-4.781q1.328-1.656 3.828-1.656.703 0 1.344.156.656.156 1.219.453v2.719q-.625-.578-1.219-.844-.594-.281-1.219-.281-1.343 0-2.031 1.078-.687 1.062-.687 3.156t.687 3.172q.688 1.062 2.031 1.062.625 0 1.219-.265.594-.281 1.219-.86z"/><text x="41" y="32.78" fill="#D9B8FF" font-family="Helvetica" font-size="17" textLength="189">azure_virtual_network</text><path fill="none" d="M174.66 147.01a84739 84739 0 0 0-36.021 54.191" style="stroke:#1a83af;stroke-width:2"/><path fill="#1A83AF" d="m135.32 206.2 8.31-5.285-5.544 1.12-1.12-5.545z" style="stroke:#1a83af;stroke-width:2"/><path fill="none" d="M112.93 47.1c-7.22 15.64-16.54 38.51-20.43 59.69-3.2 17.39-3.2 22.4 0 39.79 3.89 21.19 10.694 38.613 17.914 54.243" style="stroke:#1a83af;stroke-width:2"/><path fill="#1A83AF" d="m112.93 206.27-.143-9.848-1.954 5.309-5.308-1.954z" style="stroke:#1a83af;stroke-width:2"/><path fill="none" d="M135.34 47.22a84739 84739 0 0 1 36.021 54.191" style="stroke:#1a83af;stroke-width:2"/><path fill="#1A83AF" d="m174.68 106.41-1.646-9.71-1.12 5.544-5.544-1.12z" style="stroke:#1a83af;stroke-width:2"/></svg>
